X:1
T:Babylon is Fallen (2)
M:4/4
L:1/8
K:C
 e3/2 f/2 ge c2 G2| A3/2 B/2 cd c2 A2| G3/2 F/2 EG cd ec| d6 z2| e3/2 f/2 ge c2 G2|\
 A3/2 B/2 cd c2 A2| G3/2 F/2 EG cd ed| c6 z e| f2 e2 e2 z2| e3/2 d/2 dd d2 z g|\
 g2 e2 ee cc| d2 z A, G, F, E, D,| e3/2 f/2 ge c2 G2| A3/2 B/2 cd c2 A3/2 A/2|\
 G3/2 F/2 EG c3/2 d/2 ed| c6 z2|
